!!!OTL: Die Koenigskinder Ohne Text
!!!ARE: Europa, Mitteleuropa, Deutschland
!!!YOR: 1, S. 217
!!    1538 gedruckt in Nuernberg
!!!SCT: Q0020H
!!!YEM: Copyright 1995, estate of Helmut Schaffrath.
**kern
*ICvox
*Ivox
*M4/4
*k[b-e-]
*g:
=1
{4g
4b-
4a
4g
=2
4a
4a
2dd}
=3
{4g
8a
8a
4b-
8g
8g
=4
2fn
4r}
{4fn
=5
8a
8a
4b-
4.cc
16b-
16a
=6
4g
4b-
4a}
{4g
=7
4fn
4d
8fn
8g
4a
=8
4g
2.r}
==
!!!AGN: Ballade, Liebe, Trennung, Tod
!! Pause gemaess der vorgezeichneten Taktart korrigiert (1. Zeile)
!!    Die"Elslein"-Melodie wird in direkten Zusammenhang zur Balladengruppe
!!    gestellt.
!!!ONB: ESAC (Essen Associative Code) Database: BALLADE
!!!AMT: simple quadruple
!!!AIN: vox
!!!EED: Helmut Schaffrath
!!!EEV: 1.0
*-
